X: 211
T: Song of the Moccasin Game (a)
C: Teton Sioux band 1911-1914
N: Derived from sioux206.krn
O: South Dakota, U.S.A.
N: Teton Sioux Music by Frances Densmore, 1918
Z: transcribed to **kern format by Craig Sapp
L: 1/8
M: 2/4
Q: 1/4=58
K: D clef=treble
%%linebreak <none>
F F F F | 
G F/ F/ (3E D B, | 
F F F z | 
G F/ F/ (3E D z |[3 
D D D D | 
E D/ D/ (3B, B, G, | 
B, B, B, z ||  
[M:3/4]C B,/ B,/ B, B, G,3/ G,/ ||  
[M:2/4]G,4 | 
D D D D | 
F D/ D/ (3B, B, G, | 
B, B, B, z ||  
[M:3/4]C B,/ B,/ B, B, G,3/ G,/ ||  
[M:2/4]G,2z2 :|]  



